X:1
T:146 - Alegria Verdadeira
T:Letra: Henry Maxwell Wright (1849-1931)
T:Harm.: John Walter Clancy (1844-1909)
M:4/4
L:1/8
Q:1/4=120
K:G
V:1
"G"B3B BA GA | "B"B4 "Em"G4 | "D"A3A AG FA | A4 d3c | "G"B3B BA Bc | d4 "C"e4 | "G"de "C"dc "G/D"B2 "D7"A2 | "G"G6 z2 |]
w: 1.~Sei a-go-rao que mea-le-gra, Sei a-go-rao que mea-le-gra,_ Sei a-go-rao que mea-le-gra, Con-fi-an-do no Se-nhor!
w: 2.~É Je-sus o que mea-le-gra, É Je-sus o que mea-le-gra,_ É Je-sus o que mea-le-gra, Con-fi-an-do no Se-nhor!
W: 
W:
W: 1. Sei agora o que me alegra,
W: Sei agora o que me alegra,
W: Sei agora o que me alegra,
W: Confiando no Senhor!
W: 
W:
W:
W: 2. É Jesus o que me alegra,
W: É Jesus o que me alegra,
W: É Jesus o que me alegra,
W: Confiando no Senhor!
W:         
W:





